!!!OTL: JA LUSTIG BIN ICH
!!!ARE: Europa, Mitteleuropa, Deutschland
!!!SCT: F0769
!!!YEM: Copyright 1995, estate of Helmut Schaffrath.
**kern
*ICvox
*Ivox
*M6/8
*k[f#c#g#]
*A:
{8e
=1
4a
8e
4cc#
8a
=2
4b
8e
4dd}
{8b
=3
4cc#
8a
8ee
8dd
8cc#
=4
4.b
4r}
{16b
16cc#
=5
4dd
8b
4g#
8e
=6
4ee
8cc#
4a}
{8a
=7
8.dd
16ee
8dd
4cc#
8a
=8
4dd
8ee
4ff#}
{8dd
=9
8.cc#
16b
8a
4ee
8ee
=10
4ee}
{8a
[4.ee
=11
8.ee]
16dd
8cc#
8.dd
16cc#
8b
=12
4.a
4r}
==
!!!AGN: Geselligkeits -, Trink - Lied
!!!ONB: ESAC (Essen Associative Code) Database: FINK
!!!AMT: compound duple
!!!AIN: vox
!!!EED: Helmut Schaffrath
!!!EEV: 1.0
*-
